assets/img/partners/tucc-logo.svg

<svg height="231" viewBox="0 0 498 231" width="498" xmlns="http://www.w3.org/2000/svg"><g fill="none" fill-rule="evenodd" transform="translate(0 1)"><path d="m268.35 229.407v-228.956h212.165s16.79 0 16.79 16.79v195.377s0 16.789-16.79 16.789z" fill="#00a3da"/><path d="m227.691 205.44-.047-181.421c0-12.532-10.116-22.691-22.634-22.691h-181.455c-12.518 0-22.65 10.159-22.65 22.691l-.015 181.421c0 12.53 10.163 22.689 22.68 22.689h181.409c12.517 0 22.712-10.159 22.712-22.689zm-105.187-40.443h26.293v6.952h-18.5v9.361h15.753v6.953h-15.753v9.698h18.5v6.951h-26.293zm-34.484 39.915h7.792v-39.915h-7.792zm-67.846-39.468h8.129l6.166 25.17 7.288-25.17h5.83l7.288 25.17 6.222-25.17h8.129l-10.707 39.914h-6.503l-7.345-24.218-7.343 24.218h-6.503zm28.802-29.601h24.217v-80.472h-24.217zm-30.649-87.515h84.702v-24.217h-84.702zm137.437 88.157-1.282-.108c-22.702-2.371-40.257-21.553-40.257-44.883v-67.383h24.543l-.039 66.785c0 9.767 6.792 18.551 15.904 20.863.401.098.713.16 1.123.233zm48.748-45.238c.024 23.331-17.693 42.734-40.399 45.131l-.996.104-.005-24.526c.369-.067.642-.111 1.001-.197 9.116-2.312 15.908-11.096 15.908-20.863l-.209-66.785h24.700024zm.11 113.665h-6.952l-15.809-24.498v24.498h-7.792v-39.915h6.951l15.809 24.443v-24.443h7.793z" fill="#006095"/><path d="m324.224 110.369c1.293.891 2.238 1.824 2.832 2.799l5.028-4.9c-.764-1.147-1.581-2.121-2.451-2.929-.87-.807-1.813-1.465-2.832-1.974-1.018-.509-2.132-.87-3.341-1.083-1.209-.212-2.578-.319-4.105-.319-2.079 0-3.988.309-5.728.924-1.74.616-3.247 1.496-4.52 2.643-1.274 1.146-2.261 2.538-2.961 4.172-.701 1.634-1.05 3.471-1.05 5.509v18.088c0 4.373 1.305 7.675 3.915 9.904 2.61 2.23 6.08 3.344 10.409 3.344 2.545 0 4.814-.436 6.808-1.305 1.994-.871 3.882-2.241 5.665-4.109l-4.646-5.537c-.637.595-1.21 1.136-1.718 1.623-.51.488-1.05.901-1.624 1.241-.573.339-1.219.606-1.94.796-.722.191-1.57.285-2.545.285-4.286 0-6.429-2.08-6.429-6.241v-18.09c0-1.995.562-3.534 1.687-4.618 1.124-1.082 2.683-1.624 4.677-1.624 1.952.043 3.575.51 4.869 1.401zm21.019 4.089c-1.037.256-2.064.585-3.08.989-1.017.405-1.99.873-2.921 1.406-.931.532-1.757 1.076-2.476 1.63l2.73 5.481c.423-.34.963-.689 1.62-1.05.656-.36 1.354-.7 2.095-1.017.74-.319 1.482-.583 2.223-.797.74-.211 1.385-.318 1.936-.318 1.482 0 2.509.276 3.08.827.571.552.857 1.571.857 3.055v1.655l-15.176 3.181v8.082c0 3.055.697 5.293 2.092 6.714 1.394 1.421 3.613 2.132 6.655 2.132 1.479 0 2.862-.476 4.151-1.426 1.288-.95 2.376-2.079 3.264-3.389l.698 4.281h5.936v-21.256c0-3.691-.868-6.374-2.603-8.051-1.736-1.675-4.445-2.513-8.128-2.513-.931 0-1.916.128-2.953.384zm5.911 21.498c0 1.146-.414 2.079-1.241 2.801-.827.721-1.793 1.081-2.896 1.081-1.061 0-1.825-.147-2.291-.445-.467-.297-.7-.996-.7-2.101v-4.009l7.128-1.655zm24.464-20.907c-.997.53-1.92 1.518-2.768 2.96l-.89-3.282h-5.699v31.167h7.672v-19.735c0-1.655.35-2.885 1.05-3.693.699-.806 1.622-1.209 2.768-1.209.976 0 2.057.297 3.246.89l1.336-7.064c-.467-.256-.913-.458-1.336-.608-.425-.148-1.125-.223-2.1-.223-1.189 0-2.281.266-3.279.797zm19.902 23.475c-1.081-.68-1.622-1.804-1.622-3.375v-1.656l15.719-2.801v-5.731c0-1.655-.277-3.162-.828-4.519-.552-1.359-1.326-2.505-2.322-3.439-.998-.934-2.196-1.656-3.596-2.165s-2.927-.764-4.582-.764c-3.687 0-6.617.902-8.79 2.706-2.173 1.805-3.259 4.51-3.259 8.119v10.251c0 4.117 1.107 7.046 3.323 8.786 2.214 1.741 5.377 2.611 9.489 2.611 2.376 0 4.423-.457 6.142-1.369 1.718-.913 3.404-2.261 5.059-4.045l-4.073-5.027c-1.103 1.103-2.153 1.951-3.15 2.545s-2.174.89-3.531.89c-1.571 0-2.897-.339-3.979-1.017zm5.505-16.394c.551.7.828 1.665.828 2.895v1.846l-7.955 1.399v-3.436c0-1.273.402-2.216 1.208-2.832.807-.615 1.889-.923 3.247-.923 1.23 0 2.12.35 2.672 1.051zm24.227 16.394c-1.081-.68-1.622-1.804-1.622-3.375v-1.656l15.719-2.801v-5.731c0-1.655-.277-3.162-.828-4.519-.551-1.359-1.326-2.505-2.322-3.439-.997-.934-2.196-1.656-3.596-2.165s-2.927-.764-4.582-.764c-3.687 0-6.617.902-8.79 2.706-2.173 1.805-3.259 4.51-3.259 8.119v10.251c0 4.117 1.107 7.046 3.322 8.786 2.215 1.741 5.379 2.611 9.491 2.611 2.375 0 4.422-.457 6.141-1.369 1.718-.913 3.404-2.261 5.059-4.045l-4.073-5.027c-1.103 1.103-2.153 1.951-3.15 2.545s-2.174.89-3.531.89c-1.571 0-2.897-.339-3.979-1.017zm5.506-16.394c.551.7.827 1.665.827 2.895v1.846l-7.955 1.399v-3.436c0-1.273.403-2.216 1.209-2.832.806-.615 1.888-.923 3.246-.923 1.23 0 2.121.35 2.673 1.051zm25.847-7.081c-.997.53-1.92 1.518-2.768 2.96l-.89-3.282h-5.7v31.167h7.673v-19.735c0-1.655.349-2.885 1.05-3.693.699-.806 1.622-1.209 2.768-1.209.975 0 2.057.297 3.245.89l1.337-7.064c-.468-.256-.913-.458-1.337-.608-.425-.148-1.124-.223-2.1-.223-1.188 0-2.281.266-3.278.797z" fill="#fffffe"/><path d="m324.224 169.573c1.293.892 2.238 1.826 2.832 2.8l5.028-4.901c-.764-1.146-1.581-2.122-2.451-2.929s-1.813-1.465-2.832-1.974c-1.018-.509-2.132-.87-3.341-1.082s-2.578-.32-4.105-.32c-2.079 0-3.988.308-5.728.924s-3.247 1.497-4.52 2.643c-1.274 1.147-2.261 2.539-2.961 4.172-.701 1.635-1.05 3.471-1.05 5.509v18.088c0 4.374 1.305 7.675 3.915 9.904 2.61 2.23 6.08 3.344 10.409 3.344 2.545 0 4.814-.435 6.808-1.305s3.882-2.24 5.665-4.108l-4.646-5.537c-.637.593-1.21 1.134-1.718 1.622-.51.488-1.05.902-1.624 1.241-.573.34-1.219.605-1.94.796-.722.191-1.57.286-2.545.286-4.286 0-6.429-2.081-6.429-6.242v-18.09c0-1.995.562-3.534 1.687-4.617 1.124-1.083 2.683-1.624 4.677-1.624 1.952.042 3.575.51 4.869 1.4m19.776 28.154c-1.081-.679-1.622-1.803-1.622-3.374v-1.656l15.719-2.8v-5.732c0-1.655-.277-3.162-.828-4.52-.552-1.358-1.326-2.504-2.322-3.438-.997-.933-2.196-1.655-3.596-2.165-1.4-.509-2.927-.764-4.582-.764-3.687 0-6.617.903-8.79 2.707s-3.259 4.51-3.259 8.117v10.252c0 4.117 1.107 7.047 3.322 8.787s5.379 2.61 9.49 2.61c2.376 0 4.423-.456 6.142-1.369 1.718-.913 3.404-2.261 5.059-4.044l-4.073-5.029c-1.103 1.104-2.153 1.953-3.15 2.547-.997.593-2.174.89-3.531.89-1.571 0-2.897-.34-3.979-1.019m5.505-16.393c.551.7.828 1.665.828 2.895v1.846l-7.955 1.4v-3.437c0-1.273.402-2.216 1.209-2.832.806-.615 1.888-.923 3.246-.923 1.23 0 2.121.351 2.672 1.051m25.568-7.159c-1.125.637-2.133 1.635-3.024 2.994l-.638-3.238h-7.064v31.167h7.897v-18.699c0-.764.127-1.517.382-2.259.255-.741.605-1.409 1.05-2.004.446-.593.977-1.069 1.593-1.431.616-.36 1.305-.541 2.07-.541 1.443 0 2.409.51 2.897 1.528.488 1.017.733 2.248.733 3.688v19.718h7.896v-21.062c0-3.605-.701-6.309-2.102-8.112-1.402-1.804-3.886-2.705-7.453-2.705-1.7 0-3.111.319-4.237.956m31.049 23.756c-.318-.424-.476-.871-.476-1.338v-17.26h6.046v-5.402h-6.046v-9.202h-7.837v9.202h-4.896v5.402h4.837v18.278c0 3.058.636 5.149 1.91 6.275 1.273 1.125 3.438 1.687 6.495 1.687 1.272 0 2.619-.287 4.04-.86s2.791-1.199 4.106-1.878l-1.528-5.602c-.807.339-1.602.646-2.387.921-.784.276-1.813.414-3.086.414-.467 0-.86-.211-1.178-.637m20.423-.204c-1.081-.679-1.622-1.803-1.622-3.374v-1.656l15.719-2.8v-5.732c0-1.655-.277-3.162-.828-4.52-.552-1.358-1.326-2.504-2.322-3.438-.997-.933-2.196-1.655-3.596-2.165-1.4-.509-2.927-.764-4.582-.764-3.687 0-6.617.903-8.79 2.707s-3.259 4.51-3.259 8.117v10.252c0 4.117 1.107 7.047 3.322 8.787s5.378 2.61 9.49 2.61c2.376 0 4.423-.456 6.142-1.369s3.404-2.261 5.059-4.044l-4.073-5.029c-1.103 1.104-2.153 1.953-3.15 2.547-.997.593-2.174.89-3.531.89-1.571 0-2.897-.34-3.979-1.019m5.505-16.393c.551.7.828 1.665.828 2.895v1.846l-7.955 1.4v-3.437c0-1.273.402-2.216 1.209-2.832.806-.615 1.888-.923 3.246-.923 1.23 0 2.121.351 2.672 1.051m24.437-7.081c-.997.531-1.92 1.517-2.768 2.961l-.891-3.283h-5.699v31.167h7.672v-19.734c0-1.655.35-2.886 1.05-3.693.7-.806 1.623-1.21 2.768-1.21.976 0 2.058.297 3.246.89l1.337-7.064c-.468-.256-.913-.458-1.337-.607-.425-.149-1.124-.224-2.1-.224-1.188 0-2.281.266-3.278.797" fill="#fffffe"/><path d="m268.35 229.407v-228.956h212.165s16.79 0 16.79 16.79v195.377s0 16.789-16.79 16.789z" stroke="#00a3da" stroke-width="1.186"/></g></svg>

<?xml version="1.0" encoding="UTF-8"?>
<svg width="498px" height="231px" viewBox="0 0 498 231" version="1.1" xmlns="http://www.w3.org/2000/svg" xmlns:xlink="http://www.w3.org/1999/xlink">
    <!-- Generator: Sketch 48.1 (47250) - http://www.bohemiancoding.com/sketch -->
    <title>TUCC</title>
    <desc>Created with Sketch.</desc>
    <defs></defs>
    <g id="Page-1" stroke="none" stroke-width="1" fill="none" fill-rule="evenodd">
        <g id="TUCC_Logo_vektorisiert" transform="translate(-1.000000, -330.000000)">
            <g id="TUCC" transform="translate(1.000000, 331.000000)">
                <path d="M268.35,229.407 L268.35,0.451 L480.515,0.451 C480.515,0.451 497.305,0.451 497.305,17.241 L497.305,212.618 C497.305,212.618 497.305,229.407 480.515,229.407 L268.35,229.407" id="Fill-7" fill="#00A3DA"></path>
                <path d="M227.691,205.44 L227.644,24.019 C227.644,11.487 217.528,1.328 205.01,1.328 L23.555,1.328 C11.037,1.328 0.905,11.487 0.905,24.019 L0.89,205.44 C0.89,217.97 11.053,228.129 23.57,228.129 L204.979,228.129 C217.496,228.129 227.691,217.97 227.691,205.44 Z M122.504,164.997 L148.797,164.997 L148.797,171.949 L130.297,171.949 L130.297,181.31 L146.05,181.31 L146.05,188.263 L130.297,188.263 L130.297,197.961 L148.797,197.961 L148.797,204.912 L122.504,204.912 L122.504,164.997 Z M88.02,204.912 L95.812,204.912 L95.812,164.997 L88.02,164.997 L88.02,204.912 Z M20.174,165.444 L28.303,165.444 L34.469,190.614 L41.757,165.444 L47.587,165.444 L54.875,190.614 L61.097,165.444 L69.226,165.444 L58.519,205.358 L52.016,205.358 L44.671,181.14 L37.328,205.358 L30.825,205.358 L20.174,165.444 Z M48.976,135.843 L73.193,135.843 L73.193,55.371 L48.976,55.371 L48.976,135.843 Z M18.327,48.328 L103.029,48.328 L103.029,24.111 L18.327,24.111 L18.327,48.328 Z M155.764,136.485 L154.482,136.377 C131.78,134.006 114.225,114.824 114.225,91.494 L114.225,24.111 L138.768,24.111 L138.729,90.896 C138.729,100.663 145.521,109.447 154.633,111.759 C155.034,111.857 155.346,111.919 155.756,111.992 L155.764,136.485 Z M204.512,91.247 C204.536,114.578 186.819,133.981 164.113,136.378 L163.117,136.482 L163.112,111.956 C163.481,111.889 163.754,111.845 164.113,111.759 C173.229,109.447 180.021,100.663 180.021,90.896 L179.812,24.111 L204.512024,24.111 L204.512,91.247 Z M204.622,204.912 L197.67,204.912 L181.861,180.414 L181.861,204.912 L174.069,204.912 L174.069,164.997 L181.02,164.997 L196.829,189.44 L196.829,164.997 L204.622,164.997 L204.622,204.912 Z" id="Fill-10" fill="#006095"></path>
                <path d="M324.224,110.369 C325.517,111.26 326.462,112.193 327.056,113.168 L332.084,108.268 C331.32,107.121 330.503,106.147 329.633,105.339 C328.763,104.532 327.82,103.874 326.801,103.365 C325.783,102.856 324.669,102.495 323.46,102.282 C322.251,102.07 320.882,101.963 319.355,101.963 C317.276,101.963 315.367,102.272 313.627,102.887 C311.887,103.503 310.38,104.383 309.107,105.53 C307.833,106.676 306.846,108.068 306.146,109.702 C305.445,111.336 305.096,113.173 305.096,115.211 L305.096,133.299 C305.096,137.672 306.401,140.974 309.011,143.203 C311.621,145.433 315.091,146.547 319.42,146.547 C321.965,146.547 324.234,146.111 326.228,145.242 C328.222,144.371 330.11,143.001 331.893,141.133 L327.247,135.596 C326.61,136.191 326.037,136.732 325.529,137.219 C325.019,137.707 324.479,138.12 323.905,138.46 C323.332,138.799 322.686,139.066 321.965,139.256 C321.243,139.447 320.395,139.541 319.42,139.541 C315.134,139.541 312.991,137.461 312.991,133.3 L312.991,115.21 C312.991,113.215 313.553,111.676 314.678,110.592 C315.802,109.51 317.361,108.968 319.355,108.968 C321.307,109.011 322.93,109.478 324.224,110.369 Z M345.243,114.458 C344.206,114.714 343.179,115.043 342.163,115.447 C341.146,115.852 340.173,116.32 339.242,116.853 C338.311,117.385 337.485,117.929 336.766,118.483 L339.496,123.964 C339.919,123.624 340.459,123.275 341.116,122.914 C341.772,122.554 342.47,122.214 343.211,121.897 C343.951,121.578 344.693,121.314 345.434,121.1 C346.174,120.889 346.819,120.782 347.37,120.782 C348.852,120.782 349.879,121.058 350.45,121.609 C351.021,122.161 351.307,123.18 351.307,124.664 L351.307,126.319 L336.131,129.5 L336.131,137.582 C336.131,140.637 336.828,142.875 338.223,144.296 C339.617,145.717 341.836,146.428 344.878,146.428 C346.357,146.428 347.74,145.952 349.029,145.002 C350.317,144.052 351.405,142.923 352.293,141.613 L352.991,145.894 L358.927,145.894 L358.927,124.638 C358.927,120.947 358.059,118.264 356.324,116.587 C354.588,114.912 351.879,114.074 348.196,114.074 C347.265,114.074 346.28,114.202 345.243,114.458 Z M351.154,135.956 C351.154,137.102 350.74,138.035 349.913,138.757 C349.086,139.478 348.12,139.838 347.017,139.838 C345.956,139.838 345.192,139.691 344.726,139.393 C344.259,139.096 344.026,138.397 344.026,137.292 L344.026,133.283 L351.154,131.628 L351.154,135.956 Z M375.618,115.049 C374.621,115.579 373.698,116.567 372.85,118.009 L371.96,114.727 L366.261,114.727 L366.261,145.894 L373.933,145.894 L373.933,126.159 C373.933,124.504 374.283,123.274 374.983,122.466 C375.682,121.66 376.605,121.257 377.751,121.257 C378.727,121.257 379.808,121.554 380.997,122.147 L382.333,115.083 C381.866,114.827 381.42,114.625 380.997,114.475 C380.572,114.327 379.872,114.252 378.897,114.252 C377.708,114.252 376.616,114.518 375.618,115.049 Z M395.52,138.524 C394.439,137.844 393.898,136.72 393.898,135.149 L393.898,133.493 L409.617,130.692 L409.617,124.961 C409.617,123.306 409.34,121.799 408.789,120.442 C408.237,119.083 407.463,117.937 406.467,117.003 C405.469,116.069 404.271,115.347 402.871,114.838 C401.471,114.329 399.944,114.074 398.289,114.074 C394.602,114.074 391.672,114.976 389.499,116.78 C387.326,118.585 386.24,121.29 386.24,124.899 L386.24,135.15 C386.24,139.267 387.347,142.196 389.563,143.936 C391.777,145.677 394.94,146.547 399.052,146.547 C401.428,146.547 403.475,146.09 405.194,145.178 C406.912,144.265 408.598,142.917 410.253,141.133 L406.18,136.106 C405.077,137.209 404.027,138.057 403.03,138.651 C402.033,139.245 400.856,139.541 399.499,139.541 C397.928,139.541 396.602,139.202 395.52,138.524 Z M401.025,122.13 C401.576,122.83 401.853,123.795 401.853,125.025 L401.853,126.871 L393.898,128.27 L393.898,124.834 C393.898,123.561 394.3,122.618 395.106,122.002 C395.913,121.387 396.995,121.079 398.353,121.079 C399.583,121.079 400.473,121.429 401.025,122.13 Z M425.252,138.524 C424.171,137.844 423.63,136.72 423.63,135.149 L423.63,133.493 L439.349,130.692 L439.349,124.961 C439.349,123.306 439.072,121.799 438.521,120.442 C437.97,119.083 437.195,117.937 436.199,117.003 C435.202,116.069 434.003,115.347 432.603,114.838 C431.203,114.329 429.676,114.074 428.021,114.074 C424.334,114.074 421.404,114.976 419.231,116.78 C417.058,118.585 415.972,121.29 415.972,124.899 L415.972,135.15 C415.972,139.267 417.079,142.196 419.294,143.936 C421.509,145.677 424.673,146.547 428.785,146.547 C431.16,146.547 433.207,146.09 434.926,145.178 C436.644,144.265 438.33,142.917 439.985,141.133 L435.912,136.106 C434.809,137.209 433.759,138.057 432.762,138.651 C431.765,139.245 430.588,139.541 429.231,139.541 C427.66,139.541 426.334,139.202 425.252,138.524 Z M430.758,122.13 C431.309,122.83 431.585,123.795 431.585,125.025 L431.585,126.871 L423.63,128.27 L423.63,124.834 C423.63,123.561 424.033,122.618 424.839,122.002 C425.645,121.387 426.727,121.079 428.085,121.079 C429.315,121.079 430.206,121.429 430.758,122.13 Z M456.605,115.049 C455.608,115.579 454.685,116.567 453.837,118.009 L452.947,114.727 L447.247,114.727 L447.247,145.894 L454.92,145.894 L454.92,126.159 C454.92,124.504 455.269,123.274 455.97,122.466 C456.669,121.66 457.592,121.257 458.738,121.257 C459.713,121.257 460.795,121.554 461.983,122.147 L463.32,115.083 C462.852,114.827 462.407,114.625 461.983,114.475 C461.558,114.327 460.859,114.252 459.883,114.252 C458.695,114.252 457.602,114.518 456.605,115.049 Z" id="Fill-11" fill="#FFFFFE"></path>
                <path d="M324.224,169.573 C325.517,170.465 326.462,171.399 327.056,172.373 L332.084,167.472 C331.32,166.326 330.503,165.35 329.633,164.543 C328.763,163.736 327.82,163.078 326.801,162.569 C325.783,162.06 324.669,161.699 323.46,161.487 C322.251,161.275 320.882,161.167 319.355,161.167 C317.276,161.167 315.367,161.475 313.627,162.091 C311.887,162.707 310.38,163.588 309.107,164.734 C307.833,165.881 306.846,167.273 306.146,168.906 C305.445,170.541 305.096,172.377 305.096,174.415 L305.096,192.503 C305.096,196.877 306.401,200.178 309.011,202.407 C311.621,204.637 315.091,205.751 319.42,205.751 C321.965,205.751 324.234,205.316 326.228,204.446 C328.222,203.576 330.11,202.206 331.893,200.338 L327.247,194.801 C326.61,195.394 326.037,195.935 325.529,196.423 C325.019,196.911 324.479,197.325 323.905,197.664 C323.332,198.004 322.686,198.269 321.965,198.46 C321.243,198.651 320.395,198.746 319.42,198.746 C315.134,198.746 312.991,196.665 312.991,192.504 L312.991,174.414 C312.991,172.419 313.553,170.88 314.678,169.797 C315.802,168.714 317.361,168.173 319.355,168.173 C321.307,168.215 322.93,168.683 324.224,169.573 M344,197.727 C342.919,197.048 342.378,195.924 342.378,194.353 L342.378,192.697 L358.097,189.897 L358.097,184.165 C358.097,182.51 357.82,181.003 357.269,179.645 C356.717,178.287 355.943,177.141 354.947,176.207 C353.95,175.274 352.751,174.552 351.351,174.042 C349.951,173.533 348.424,173.278 346.769,173.278 C343.082,173.278 340.152,174.181 337.979,175.985 C335.806,177.789 334.72,180.495 334.72,184.102 L334.72,194.354 C334.72,198.471 335.827,201.401 338.042,203.141 C340.257,204.881 343.421,205.751 347.532,205.751 C349.908,205.751 351.955,205.295 353.674,204.382 C355.392,203.469 357.078,202.121 358.733,200.338 L354.66,195.309 C353.557,196.413 352.507,197.262 351.51,197.856 C350.513,198.449 349.336,198.746 347.979,198.746 C346.408,198.746 345.082,198.406 344,197.727 M349.505,181.334 C350.056,182.034 350.333,182.999 350.333,184.229 L350.333,186.075 L342.378,187.475 L342.378,184.038 C342.378,182.765 342.78,181.822 343.587,181.206 C344.393,180.591 345.475,180.283 346.833,180.283 C348.063,180.283 348.954,180.634 349.505,181.334 M375.073,174.175 C373.948,174.812 372.94,175.81 372.049,177.169 L371.411,173.931 L364.347,173.931 L364.347,205.098 L372.244,205.098 L372.244,186.399 C372.244,185.635 372.371,184.882 372.626,184.14 C372.881,183.399 373.231,182.731 373.676,182.136 C374.122,181.543 374.653,181.067 375.269,180.705 C375.885,180.345 376.574,180.164 377.339,180.164 C378.782,180.164 379.748,180.674 380.236,181.692 C380.724,182.709 380.969,183.94 380.969,185.38 L380.969,205.098 L388.865,205.098 L388.865,184.036 C388.865,180.431 388.164,177.727 386.763,175.924 C385.361,174.12 382.877,173.219 379.31,173.219 C377.61,173.219 376.199,173.538 375.073,174.175 M406.122,197.931 C405.804,197.507 405.646,197.06 405.646,196.593 L405.646,179.333 L411.692,179.333 L411.692,173.931 L405.646,173.931 L405.646,164.729 L397.809,164.729 L397.809,173.931 L392.913,173.931 L392.913,179.333 L397.75,179.333 L397.75,197.611 C397.75,200.669 398.386,202.76 399.66,203.886 C400.933,205.011 403.098,205.573 406.155,205.573 C407.427,205.573 408.774,205.286 410.195,204.713 C411.616,204.14 412.986,203.514 414.301,202.835 L412.773,197.233 C411.966,197.572 411.171,197.879 410.386,198.154 C409.602,198.43 408.573,198.568 407.3,198.568 C406.833,198.568 406.44,198.357 406.122,197.931 M426.545,197.727 C425.464,197.048 424.923,195.924 424.923,194.353 L424.923,192.697 L440.642,189.897 L440.642,184.165 C440.642,182.51 440.365,181.003 439.814,179.645 C439.262,178.287 438.488,177.141 437.492,176.207 C436.495,175.274 435.296,174.552 433.896,174.042 C432.496,173.533 430.969,173.278 429.314,173.278 C425.627,173.278 422.697,174.181 420.524,175.985 C418.351,177.789 417.265,180.495 417.265,184.102 L417.265,194.354 C417.265,198.471 418.372,201.401 420.587,203.141 C422.802,204.881 425.965,205.751 430.077,205.751 C432.453,205.751 434.5,205.295 436.219,204.382 C437.938,203.469 439.623,202.121 441.278,200.338 L437.205,195.309 C436.102,196.413 435.052,197.262 434.055,197.856 C433.058,198.449 431.881,198.746 430.524,198.746 C428.953,198.746 427.627,198.406 426.545,197.727 M432.05,181.334 C432.601,182.034 432.878,182.999 432.878,184.229 L432.878,186.075 L424.923,187.475 L424.923,184.038 C424.923,182.765 425.325,181.822 426.132,181.206 C426.938,180.591 428.02,180.283 429.378,180.283 C430.608,180.283 431.499,180.634 432.05,181.334 M456.487,174.253 C455.49,174.784 454.567,175.77 453.719,177.214 L452.828,173.931 L447.129,173.931 L447.129,205.098 L454.801,205.098 L454.801,185.364 C454.801,183.709 455.151,182.478 455.851,181.671 C456.551,180.865 457.474,180.461 458.619,180.461 C459.595,180.461 460.677,180.758 461.865,181.351 L463.202,174.287 C462.734,174.031 462.289,173.829 461.865,173.68 C461.44,173.531 460.741,173.456 459.765,173.456 C458.577,173.456 457.484,173.722 456.487,174.253" id="Fill-12" fill="#FFFFFE"></path>
                <path d="M268.35,229.407 L268.35,0.451 L480.515,0.451 C480.515,0.451 497.305,0.451 497.305,17.241 L497.305,212.618 C497.305,212.618 497.305,229.407 480.515,229.407 L268.35,229.407 Z" id="Stroke-8" stroke="#00A3DA" stroke-width="1.186"></path>
            </g>
        </g>
    </g>
</svg>
